src/assets/selectIcons/amuleto_3.svg

<?xml version="1.0" encoding="UTF-8" standalone="no"?>
<!DOCTYPE svg PUBLIC "-//W3C//DTD SVG 1.1//EN" "http://www.w3.org/Graphics/SVG/1.1/DTD/svg11.dtd">
<svg width="100%" height="100%" viewBox="0 0 512 512" version="1.1" xmlns="http://www.w3.org/2000/svg" xmlns:xlink="http://www.w3.org/1999/xlink" xml:space="preserve" xmlns:serif="http://www.serif.com/" style="fill-rule:evenodd;clip-rule:evenodd;stroke-linejoin:round;stroke-miterlimit:2;">
    <rect x="0" y="0" width="512" height="512" style="fill-rule:nonzero;"/>
    <g>
        <path d="M471.1,30.58L488.9,33.42C488.9,33.42 476,114.1 448.1,204.9C453.5,209.5 457,216.4 457,224C457,237.2 446.5,248.2 433.5,249C415.5,299.4 392.9,349.6 364.7,388.3C355.6,400.8 345.9,412.1 335.5,421.9C331.6,417.2 326.6,413.3 321,410.7C331.2,401.6 340.9,390.5 350.2,377.7C376.6,341.5 398.7,292.8 416.3,243.4C410.6,238.8 407,231.8 407,224C407,210.6 417.8,199.6 431,199C458.4,110 471.1,30.58 471.1,30.58ZM40.91,30.58C40.91,30.58 53.71,110 81.01,199C94.21,199.5 105,210.6 105,224C105,231.8 101.3,238.8 95.71,243.4C113.3,292.8 135.4,341.5 161.8,377.7C171.1,390.5 180.8,401.6 191,410.7C185.4,413.3 180.4,417.2 176.5,421.9C166.1,412.1 156.4,400.8 147.3,388.3C119.1,349.6 96.61,299.4 78.51,249C65.51,248.2 55.01,237.2 55.01,224C55.01,216.4 58.51,209.5 63.91,204.9C36.01,114.1 23.11,33.42 23.11,33.42L40.91,30.58ZM407.1,62.52L424.9,65.48C424.9,65.48 417,113.4 393,162.2L393,208L375,208L375,193.5C365.4,207.8 354.2,221.4 340.9,232.8C337.1,236 333.1,239.1 329,242L329,288L311,288L311,252.5C297.2,259.2 281.8,263.5 265,264.7L265,304L247,304L247,264.7C230.2,263.5 214.8,259.2 201,252.5L201,288L183,288L183,242C178.9,239.1 174.9,236 171.1,232.8C157.8,221.4 146.6,207.8 137,193.5L137,208L119,208L119,162.2C95.01,113.4 87.11,65.48 87.11,65.48L104.9,62.52C104.9,62.52 112.8,109.4 136.1,156C147.7,179.3 163.1,202.3 182.9,219.2C202.6,236.1 226.2,247 256,247C285.8,247 309.4,236.1 329.1,219.2C348.9,202.3 364.3,179.3 375.9,156C399.2,109.4 407.1,62.52 407.1,62.52Z" style="fill:rgb(162,158,158);fill-rule:nonzero;"/>
        <path d="M304,425C316.8,425 327,435.2 327,448C327,460.8 316.8,471 304,471C301.4,471 298.9,470.6 296.6,469.8C296.8,467.9 297,466 297,464C297,452.7 292.4,442.5 284.9,435.1C289,429 296,425 304,425ZM208,425C216,425 223,429 227.1,435.1C219.6,442.5 215,452.7 215,464C215,466 215.2,467.9 215.4,469.8C213.1,470.6 210.6,471 208,471C195.2,471 185,460.8 185,448C185,435.2 195.2,425 208,425ZM256,441C268.8,441 279,451.2 279,464C279,476.8 268.8,487 256,487C243.2,487 233,476.8 233,464C233,451.2 243.2,441 256,441Z" style="fill:rgb(205,255,0);"/>
    </g>
</svg>

<svg xmlns="http://www.w3.org/2000/svg" viewBox="0 0 512 512" style="height: 512px; width: 512px;"><path d="M0 0h512v512H0z" fill="#000" fill-opacity="1"></path><g class="" transform="translate(0,0)" style=""><path d="M471.1 30.58l17.8 2.84S476 114.1 448.1 204.9c5.4 4.6 8.9 11.5 8.9 19.1 0 13.2-10.5 24.2-23.5 25-18 50.4-40.6 100.6-68.8 139.3-9.1 12.5-18.8 23.8-29.2 33.6-3.9-4.7-8.9-8.6-14.5-11.2 10.2-9.1 19.9-20.2 29.2-33 26.4-36.2 48.5-84.9 66.1-134.3-5.7-4.6-9.3-11.6-9.3-19.4 0-13.4 10.8-24.4 24-25 27.4-89 40.1-168.42 40.1-168.42zm-430.19 0S53.71 110 81.01 199c13.2.5 23.99 11.6 23.99 25 0 7.8-3.7 14.8-9.29 19.4 17.59 49.4 39.69 98.1 66.09 134.3 9.3 12.8 19 23.9 29.2 33-5.6 2.6-10.6 6.5-14.5 11.2-10.4-9.8-20.1-21.1-29.2-33.6-28.2-38.7-50.69-88.9-68.79-139.3-13-.8-23.5-11.8-23.5-25 0-7.6 3.5-14.5 8.9-19.1-27.9-90.8-40.8-171.48-40.8-171.48zM407.1 62.52l17.8 2.96S417 113.4 393 162.2V208h-18v-14.5c-9.6 14.3-20.8 27.9-34.1 39.3-3.8 3.2-7.8 6.3-11.9 9.2v46h-18v-35.5c-13.8 6.7-29.2 11-46 12.2V304h-18v-39.3c-16.8-1.2-32.2-5.5-46-12.2V288h-18v-46c-4.1-2.9-8.1-6-11.9-9.2-13.3-11.4-24.5-25-34.1-39.3V208h-18v-45.8c-23.99-48.8-31.89-96.72-31.89-96.72l17.79-2.96s7.9 46.88 31.2 93.48c11.6 23.3 27 46.3 46.8 63.2 19.7 16.9 43.3 27.8 73.1 27.8 29.8 0 53.4-10.9 73.1-27.8 19.8-16.9 35.2-39.9 46.8-63.2 23.3-46.6 31.2-93.48 31.2-93.48zM304 425c12.8 0 23 10.2 23 23s-10.2 23-23 23c-2.6 0-5.1-.4-7.4-1.2.2-1.9.4-3.8.4-5.8 0-11.3-4.6-21.5-12.1-28.9C289 429 296 425 304 425zm-96 0c8 0 15 4 19.1 10.1-7.5 7.4-12.1 17.6-12.1 28.9 0 2 .2 3.9.4 5.8-2.3.8-4.8 1.2-7.4 1.2-12.8 0-23-10.2-23-23s10.2-23 23-23zm48 16c12.8 0 23 10.2 23 23s-10.2 23-23 23-23-10.2-23-23 10.2-23 23-23z" fill="#fff" fill-opacity="1"></path></g></svg>
